app/assets/images/heart.svg

<svg viewBox="0 0 46 41" fill="none" xmlns="http://www.w3.org/2000/svg">
    <path d="M42.1864 3.802C37.1184 -1.266 28.8704 -1.266 23.8014 3.802C23.5204 4.083 23.2514 4.379 22.9944 4.689C22.7374 4.378 22.4684 4.083 22.1864 3.801C17.1184 -1.267 8.87037 -1.267 3.80137 3.801C-1.26762 8.869 -1.26662 17.117 3.80137 22.186L22.2864 40.671C22.4814 40.866 22.7374 40.964 22.9934 40.964C23.2494 40.964 23.5054 40.866 23.7004 40.671L42.1854 22.186C47.2554 17.118 47.2554 8.87 42.1864 3.802Z" fill="#E86C60"/>
  </svg>

<svg fill="none" viewBox="0 0 46 41" xmlns="http://www.w3.org/2000/svg"><path d="m42.1864 3.802c-5.068-5.068-13.316-5.068-18.385 0-.281.281-.55.577-.807.887-.257-.311-.526-.606-.808-.888-5.068-5.068-13.31603-5.068-18.38503 0-5.06899 5.068-5.06799 13.316 0 18.385l18.48503 18.485c.195.195.451.293.707.293s.512-.098.707-.293l18.485-18.485c5.07-5.068 5.07-13.316.001-18.384z" fill="#e86c60"/></svg>
